resources/assets/icons/brands/exodus.svg

<svg xmlns="http://www.w3.org/2000/svg" viewBox="0 0 20 20"><path fill="currentColor" d="M14 10l6 6h-2.1c-.4 0-.7-.1-.9-.4L11.4 10 17 4.4c.2-.2.6-.4.9-.4H20l-6 6zM3.1 4.4c-.3-.2-.7-.3-1-.3H0L6 10l-6 6h2.1c.4 0 .7-.1.9-.4L8.6 10 3.1 4.4zm6.9 7L4.4 17c-.2.2-.4.6-.4.9V20l6-6 6 6v-2.1c0-.4-.1-.7-.4-.9L10 11.4zm0-2.8L15.6 3c.2-.2.4-.6.4-.9V0l-6 6-6-6v2.1c0 .4.1.7.4.9L10 8.6z"/></svg>

<?xml version="1.0" encoding="utf-8"?>
<!-- Generator: Adobe Illustrator 26.0.1, SVG Export Plug-In . SVG Version: 6.00 Build 0)  -->
<svg version="1.1" xmlns="http://www.w3.org/2000/svg" xmlns:xlink="http://www.w3.org/1999/xlink" x="0px" y="0px"
	 viewBox="0 0 20 20" enable-background="new 0 0 20 20" xml:space="preserve">
<path fill="#212225" d="M14,10l6,6h-2.1c-0.4,0-0.7-0.1-0.9-0.4L11.4,10l5.6-5.6c0.2-0.2,0.6-0.4,0.9-0.4H20L14,10z M3.1,4.4
	C2.8,4.2,2.4,4.1,2.1,4.1H0L6,10l-6,6h2.1c0.4,0,0.7-0.1,0.9-0.4l5.6-5.6C8.6,10,3.1,4.4,3.1,4.4L3.1,4.4z M10,11.4l-5.6,5.6
	c-0.2,0.2-0.4,0.6-0.4,0.9V20l6-6l6,6v-2.1c0-0.4-0.1-0.7-0.4-0.9L10,11.4z M10,8.6l5.6-5.6c0.2-0.2,0.4-0.6,0.4-0.9V0L10,6L4,0v2.1
	c0,0.4,0.1,0.7,0.4,0.9L10,8.6L10,8.6z"/>
</svg>
